public/assets/images/logo/wallet-img-2.svg

<svg xmlns="http://www.w3.org/2000/svg" width="296.2" height="296.1" viewBox="0 0 296.2 296.1">
  <g id="wallet-img-2" transform="translate(-2 -2)">
    <g id="Group_16" data-name="Group 16">
      <g id="Group_15" data-name="Group 15">
        <path id="Path_4" data-name="Path 4" d="M246.9,33.9a9.709,9.709,0,0,1-9.7-9.7V19.4H159.7v4.8a9.709,9.709,0,0,1-9.7,9.7h-4.8V137.1H251.7V33.9ZM169.4,135.6a29,29,0,0,1,58,0Z" fill="#399dd6"/>
        <g id="Group_9" data-name="Group 9">
          <path id="Path_5" data-name="Path 5" d="M276,113.4h-6.8V2H127.9V113.4H121a22.278,22.278,0,0,0-22.2,22.2V186H18.1A16.068,16.068,0,0,0,2,202v80a16.09,16.09,0,0,0,16.1,16.1H276a22.214,22.214,0,0,0,22.2-22.2V135.6A22.214,22.214,0,0,0,276,113.4ZM133.6,7.7H263.5v125H230.3L230,131a31.823,31.823,0,0,0-63,0l-.3,1.7H133.5V7.7Zm91.1,125H172.4l.5-2.4a26.226,26.226,0,0,1,51.4,0ZM156.9,282.1a10.457,10.457,0,0,1-10.4,10.4H18.1A10.457,10.457,0,0,1,7.7,282.1v-3.3H156.9Zm0-9H7.7V259.4H156.9Zm0-19.4H7.7V202a10.457,10.457,0,0,1,10.4-10.4H146.6A10.457,10.457,0,0,1,157,202v51.7Zm135.6-9.6H222.7a16.5,16.5,0,0,1,0-33h69.8Zm0-38.8H222.7a22.2,22.2,0,0,0,0,44.4h69.8v26.2A16.516,16.516,0,0,1,276,292.4H159.1l1.6-2.9a15.483,15.483,0,0,0,1.9-7.5V202a16.09,16.09,0,0,0-16.1-16.1h-42V150.7l3.2,2.4a21.682,21.682,0,0,0,13.3,4.6H276a16.516,16.516,0,0,1,16.5,16.5Zm0-46.2-3.2-2.4a21.681,21.681,0,0,0-13.3-4.6H121a16.5,16.5,0,0,1,0-33h6.8v13.7H123v5.7H274v-5.7h-4.8V119H276a16.516,16.516,0,0,1,16.5,16.5Z" fill="#4d4d4f"/>
        </g>
        <g id="Group_10" data-name="Group 10">
          <path id="Path_6" data-name="Path 6" d="M225.5,227.5a2.8,2.8,0,0,1-2.8,2.8,2.8,2.8,0,1,1,2.8-2.8Z" fill="#4d4d4f"/>
        </g>
        <g id="Group_11" data-name="Group 11">
          <rect id="Rectangle_5" data-name="Rectangle 5" width="29.9" height="5.7" transform="translate(21.4 205.3)" fill="#4d4d4f"/>
        </g>
        <g id="Group_12" data-name="Group 12">
          <rect id="Rectangle_6" data-name="Rectangle 6" width="20.2" height="5.7" transform="translate(31 224.7)" fill="#4d4d4f"/>
        </g>
        <g id="Group_13" data-name="Group 13">
          <path id="Path_7" data-name="Path 7" d="M60.9,62.9A12.5,12.5,0,0,1,48.4,75.4h-2v4.8H40.7V75.4h-2A12.666,12.666,0,0,1,26.3,64.9h5.8a6.781,6.781,0,0,0,6.5,4.8h9.7a6.8,6.8,0,1,0,0-13.6H38.6a12.5,12.5,0,1,1,0-25h2V26.3h5.7v4.8h2A12.666,12.666,0,0,1,60.7,41.6H55a6.905,6.905,0,0,0-6.6-4.8H38.7a6.8,6.8,0,0,0,0,13.6h9.7A12.5,12.5,0,0,1,60.9,62.9Z" fill="#4d4d4f"/>
        </g>
        <g id="Group_14" data-name="Group 14">
          <path id="Path_8" data-name="Path 8" d="M85.1,92a41.491,41.491,0,0,0-4.4-18.4l-.4-.9.4-.9a41.55,41.55,0,1,0-74.3,0l.4.9-.4.9A41.491,41.491,0,0,0,2,92a40.964,40.964,0,0,0,4.4,18.5l.4.9-.4.9a41.6,41.6,0,1,0,74.4,0l-.4-.9.4-.9A41.171,41.171,0,0,0,85.1,92ZM43.6,166.6A35.935,35.935,0,0,1,7.7,130.7a33.985,33.985,0,0,1,1.6-10.3l1-3.4,2.4,2.7a41.724,41.724,0,0,0,30.9,13.9h4.8a6.8,6.8,0,0,1,0,13.6H38.7a6.691,6.691,0,0,1-6.5-4.8H26.4a12.5,12.5,0,0,0,12.4,10.5h2v4.8h5.7v-4.8h2A12.5,12.5,0,0,0,61,140.4a12.925,12.925,0,0,0-2.2-7.1l-1.4-2,2.3-1a41.065,41.065,0,0,0,14.9-10.7l2.4-2.7,1,3.4a37.4,37.4,0,0,1,1.6,10.3A36.106,36.106,0,0,1,43.6,166.6Zm0-38.7A35.935,35.935,0,0,1,7.7,92,33.985,33.985,0,0,1,9.3,81.7l1-3.4,2.4,2.6A41.724,41.724,0,0,0,43.6,94.8h4.8a6.8,6.8,0,0,1,0,13.6H38.7a6.691,6.691,0,0,1-6.5-4.8H26.4a12.5,12.5,0,0,0,12.4,10.5h2v4.8h5.7v-4.8h2A12.5,12.5,0,0,0,61,101.6a12.925,12.925,0,0,0-2.2-7.1l-1.4-2,2.3-1A42.279,42.279,0,0,0,74.6,80.8L77,78.1l1,3.4a37.4,37.4,0,0,1,1.6,10.3A36.127,36.127,0,0,1,43.6,127.9Zm0-38.8A35.9,35.9,0,1,1,79.5,53.2,35.935,35.935,0,0,1,43.6,89.1Z" fill="#4d4d4f"/>
        </g>
      </g>
    </g>
    <path id="Path_9" data-name="Path 9" d="M140.3,243.8l-35.8-22.2,35.8-22.1Z" fill="#399dd6"/>
  </g>
</svg>

<?xml version="1.0" encoding="utf-8"?>
<!-- Generator: Adobe Illustrator 24.0.1, SVG Export Plug-In . SVG Version: 6.00 Build 0)  -->
<svg version="1.1" id="Layer_1" xmlns="http://www.w3.org/2000/svg" xmlns:xlink="http://www.w3.org/1999/xlink" x="0px" y="0px"
	 viewBox="0 0 300.2 300.2" style="enable-background:new 0 0 300.2 300.2;" xml:space="preserve">
<style type="text/css">
	.st0{fill:#ED1B2F;}
	.st1{fill:#4D4D4F;}
</style>
<g>
	<g>
		<path class="st0" d="M246.9,33.9c-5.3,0-9.7-4.3-9.7-9.7v-4.8h-77.5v4.8c0,5.3-4.3,9.7-9.7,9.7h-4.8v103.2h106.5V33.9H246.9z
			 M169.4,135.6c0-16,13-29,29-29s29,13,29,29H169.4z"/>
		<g>
			<path class="st1" d="M276,113.4h-6.8V2H127.9v111.4H121c-12.2,0-22.2,10-22.2,22.2V186H18.1C9.2,186,2,193.2,2,202v80
				c0,8.9,7.2,16.1,16.1,16.1H276c12.3,0,22.2-10,22.2-22.2V135.6C298.2,123.3,288.2,113.4,276,113.4z M133.6,7.7h129.9v125h-33.2
				L230,131c-2.2-15.6-15.8-27.3-31.5-27.3c-15.7,0-29.3,11.8-31.5,27.3l-0.3,1.7h-33.2V7.7z M224.7,132.7h-52.3l0.5-2.4
				c2.5-12.1,13.3-21,25.7-21c12.4,0,23.2,8.8,25.7,21L224.7,132.7z M156.9,282.1c0,5.7-4.7,10.4-10.4,10.4H18.1
				c-5.7,0-10.4-4.7-10.4-10.4v-3.3h149.2V282.1z M156.9,273.1H7.7v-13.7h149.2V273.1z M156.9,253.7H7.7V202
				c0-5.7,4.7-10.4,10.4-10.4h128.5c5.7,0,10.4,4.7,10.4,10.4V253.7z M292.5,244.1h-69.8c-9.1,0-16.5-7.4-16.5-16.5
				s7.4-16.5,16.5-16.5h69.8V244.1z M292.5,205.3h-69.8c-12.2,0-22.2,10-22.2,22.2s10,22.2,22.2,22.2h69.8v26.2
				c0,9.1-7.4,16.5-16.5,16.5H159.1l1.6-2.9c1.3-2.4,1.9-4.9,1.9-7.5v-80c0-8.9-7.2-16.1-16.1-16.1h-42v-35.2l3.2,2.4
				c3.9,3,8.5,4.6,13.3,4.6H276c9.1,0,16.5,7.4,16.5,16.5V205.3z M292.5,159.1l-3.2-2.4c-3.9-3-8.5-4.6-13.3-4.6H121
				c-9.1,0-16.5-7.4-16.5-16.5c0-9.1,7.4-16.5,16.5-16.5h6.8v13.7H123v5.7H274v-5.7h-4.8V119h6.8c9.1,0,16.5,7.4,16.5,16.5V159.1z"
				/>
		</g>
		<g>
			<path class="st1" d="M225.5,227.5c0,1.6-1.3,2.8-2.8,2.8s-2.8-1.3-2.8-2.8s1.3-2.8,2.8-2.8S225.5,226,225.5,227.5z"/>
		</g>
		<g>
			<rect x="21.4" y="205.3" class="st1" width="29.9" height="5.7"/>
		</g>
		<g>
			<rect x="31" y="224.7" class="st1" width="20.2" height="5.7"/>
		</g>
		<g>
			<path class="st1" d="M60.9,62.9c0,6.9-5.6,12.5-12.5,12.5h-2v4.8h-5.7v-4.8h-2c-6.2,0-11.4-4.6-12.4-10.5h5.8
				c0.8,2.8,3.5,4.8,6.5,4.8h9.7c3.8,0,6.8-3.1,6.8-6.8c0-3.8-3.1-6.8-6.8-6.8h-9.7c-6.9,0-12.5-5.6-12.5-12.5
				c0-6.9,5.6-12.5,12.5-12.5h2v-4.8h5.7v4.8h2c6.2,0,11.4,4.6,12.4,10.5H55c-0.9-2.8-3.5-4.8-6.6-4.8h-9.7c-3.8,0-6.8,3.1-6.8,6.8
				c0,3.8,3.1,6.8,6.8,6.8h9.7C55.3,50.4,60.9,56,60.9,62.9z"/>
		</g>
		<g>
			<path class="st1" d="M85.1,92c0-6.2-1.5-12.6-4.4-18.4l-0.4-0.9l0.4-0.9c2.9-5.8,4.4-12.1,4.4-18.6c0-22.9-18.7-41.6-41.6-41.6
				S2,30.3,2,53.2C2,59.7,3.5,66,6.4,71.8l0.4,0.9l-0.4,0.9C3.5,79.4,2,85.8,2,92c0,6.5,1.5,12.7,4.4,18.5l0.4,0.9l-0.4,0.9
				C3.5,118.1,2,124.5,2,130.7c0,22.9,18.7,41.6,41.6,41.6s41.6-18.7,41.6-41.6c0-6.2-1.5-12.6-4.4-18.4l-0.4-0.9l0.4-0.9
				C83.7,104.7,85.1,98.4,85.1,92z M43.6,166.6c-19.8,0-35.9-16.1-35.9-35.9c0-3.4,0.5-6.8,1.6-10.3l1-3.4l2.4,2.7
				c7.9,8.8,19.2,13.9,30.9,13.9h4.8c3.8,0,6.8,3.1,6.8,6.8c0,3.8-3.1,6.8-6.8,6.8h-9.7c-3.1,0-5.7-2-6.5-4.8h-5.8
				c1,6,6.1,10.5,12.4,10.5h2v4.8h5.7v-4.8h2c6.9,0,12.5-5.6,12.5-12.5c0-2.5-0.8-5-2.2-7.1l-1.4-2l2.3-1c5.6-2.3,10.7-6,14.9-10.7
				l2.4-2.7l1,3.4c1,3.5,1.6,6.9,1.6,10.3C79.5,150.5,63.4,166.6,43.6,166.6z M43.6,127.9c-19.8,0-35.9-16.1-35.9-35.9
				c0-3.4,0.5-6.8,1.6-10.3l1-3.4l2.4,2.6c7.9,8.8,19.2,13.9,30.9,13.9h4.8c3.8,0,6.8,3.1,6.8,6.8c0,3.8-3.1,6.8-6.8,6.8h-9.7
				c-3.1,0-5.7-2-6.5-4.8h-5.8c1,6,6.1,10.5,12.4,10.5h2v4.8h5.7v-4.8h2c6.9,0,12.5-5.6,12.5-12.5c0-2.5-0.8-5-2.2-7.1l-1.4-2l2.3-1
				c5.6-2.4,10.7-6,14.9-10.7l2.4-2.7l1,3.4c1,3.5,1.6,6.9,1.6,10.3C79.5,111.8,63.4,127.9,43.6,127.9z M43.6,89.1
				C23.8,89.1,7.7,73,7.7,53.2c0-19.8,16.1-35.9,35.9-35.9s35.9,16.1,35.9,35.9C79.5,73,63.4,89.1,43.6,89.1z"/>
		</g>
	</g>
</g>
<polygon class="st0" points="140.3,243.8 104.5,221.6 140.3,199.5 "/>
</svg>
